img/icon-careers.svg

<svg fill="none" height="80" viewBox="0 0 80 80" width="80" xmlns="http://www.w3.org/2000/svg" xmlns:xlink="http://www.w3.org/1999/xlink"><linearGradient id="a" gradientUnits="userSpaceOnUse" x1="58.3334" x2="131.369" y1="-84.9785" y2="224.262"><stop offset="0" stop-color="#e43eff"/><stop offset="1" stop-color="#0094ff"/></linearGradient><mask id="b" height="80" maskUnits="userSpaceOnUse" width="80" x="0" y="0"><path clip-rule="evenodd" d="m41.722 19.982c-1.0963-.4872-2.3476-.4872-3.4438 0l-25.2702 11.2312 25.2702 11.2312c1.0962.4872 2.3475.4872 3.4438 0l25.2701-11.2312zm-4.5918-2.5829c1.8271-.812 3.9126-.812 5.7397 0l25.7932 11.4637c.9824.4366 1.4909 1.3351 1.5256 2.25.0023.033.0034.0664.0034.1001v13.543c0 .7805-.6327 1.4132-1.4132 1.4132s-1.4132-.6327-1.4132-1.4132v-10.6157l-7.4371 3.3054c.0685.1661.1064.3481.1064.5389v16.9288c0 .1155-.0142.2307-.0422.3428l-1.3711-.3428c1.3711.3428 1.3707.3444 1.3703.346l-.0009.0034-.0019.0072-.0043.0165c-.0019.007-.004.0146-.0063.0228-.0016.0055-.0033.0114-.0051.0175-.0087.0302-.02.0669-.0342.1095-.0285.0854-.0687.1948-.1244.3248-.1115.26-.2842.6011-.5463.9943-.5267.79-1.4006 1.7697-2.8255 2.7196-2.8452 1.8968-7.8039 3.6231-16.443 3.6231s-13.5978-1.7263-16.443-3.6231c-1.4249-.9499-2.2987-1.9296-2.8255-2.7196-.262-.3932-.4348-.7343-.5463-.9943-.0556-.13-.0959-.2394-.1244-.3248-.0142-.0426-.0255-.0793-.0342-.1095-.0044-.0151-.0082-.0285-.0113-.0403l-.0044-.0165-.0019-.0072-.0008-.0034c-.0004-.0016-.0008-.0032 1.3702-.346l-1.371.3428c-.0281-.1121-.0422-.2273-.0422-.3428v-16.9288c0-.1908.0378-.3728.1064-.5389l-8.7347-3.882c-2.03657-.9052-2.03657-3.7957 0-4.7008zm-14.3385 21.2554v16.0125c.0494.1123.1397.2924.2917.5204.3197.4796.9271 1.1928 2.0415 1.9358 2.2334 1.4889 6.5856 3.1484 14.8752 3.1484 8.2897 0 12.6418-1.6595 14.8752-3.1484 1.1144-.743 1.7218-1.4562 2.0415-1.9358.152-.228.2423-.4081.2917-.5204v-16.0125l-14.3386 6.3727c-1.8271.812-3.9126.812-5.7397 0z" fill="#e43eff" fill-rule="evenodd"/></mask><g mask="url(#b)"><path d="m-14.7028-45.7379h146.072v146.072h-146.072z" fill="url(#a)"/></g></svg>

<svg width="80" height="80" viewBox="0 0 80 80" fill="none" xmlns="http://www.w3.org/2000/svg">
<mask id="mask0_108_2053" style="mask-type:alpha" maskUnits="userSpaceOnUse" x="0" y="0" width="80" height="80">
<path fill-rule="evenodd" clip-rule="evenodd" d="M41.722 19.982C40.6257 19.4948 39.3744 19.4948 38.2782 19.982L13.008 31.2132L38.2782 42.4444C39.3744 42.9316 40.6257 42.9316 41.722 42.4444L66.9921 31.2132L41.722 19.982ZM37.1302 17.3991C38.9573 16.5871 41.0428 16.5871 42.8699 17.3991L68.6631 28.8628C69.6455 29.2994 70.154 30.1979 70.1887 31.1128C70.191 31.1458 70.1921 31.1792 70.1921 31.2129V44.7559C70.1921 45.5364 69.5594 46.1691 68.7789 46.1691C67.9984 46.1691 67.3657 45.5364 67.3657 44.7559V34.1402L59.9286 37.4456C59.9971 37.6117 60.035 37.7937 60.035 37.9845V54.9133C60.035 55.0288 60.0208 55.144 59.9928 55.2561L58.6217 54.9133C59.9928 55.2561 59.9924 55.2577 59.992 55.2593L59.9911 55.2627L59.9892 55.2699L59.9849 55.2864C59.983 55.2934 59.9809 55.301 59.9786 55.3092C59.977 55.3147 59.9753 55.3206 59.9735 55.3267C59.9648 55.3569 59.9535 55.3936 59.9393 55.4362C59.9108 55.5216 59.8706 55.631 59.8149 55.761C59.7034 56.021 59.5307 56.3621 59.2686 56.7553C58.7419 57.5453 57.868 58.525 56.4431 59.4749C53.5979 61.3717 48.6392 63.098 40.0001 63.098C31.361 63.098 26.4023 61.3717 23.5571 59.4749C22.1322 58.525 21.2584 57.5453 20.7316 56.7553C20.4696 56.3621 20.2968 56.021 20.1853 55.761C20.1297 55.631 20.0894 55.5216 20.0609 55.4362C20.0467 55.3936 20.0354 55.3569 20.0267 55.3267C20.0223 55.3116 20.0185 55.2982 20.0154 55.2864L20.011 55.2699L20.0091 55.2627L20.0083 55.2593C20.0079 55.2577 20.0075 55.2561 21.3785 54.9133L20.0075 55.2561C19.9794 55.144 19.9653 55.0288 19.9653 54.9133V37.9845C19.9653 37.7937 20.0031 37.6117 20.0717 37.4456L11.337 33.5636C9.30043 32.6584 9.30043 29.7679 11.337 28.8628L37.1302 17.3991ZM22.7917 38.6545V54.667C22.8411 54.7793 22.9314 54.9594 23.0834 55.1874C23.4031 55.667 24.0105 56.3802 25.1249 57.1232C27.3583 58.6121 31.7105 60.2716 40.0001 60.2716C48.2898 60.2716 52.6419 58.6121 54.8753 57.1232C55.9897 56.3802 56.5971 55.667 56.9168 55.1874C57.0688 54.9594 57.1591 54.7793 57.2085 54.667V38.6545L42.8699 45.0272C41.0428 45.8392 38.9573 45.8392 37.1302 45.0272L22.7917 38.6545Z" fill="#E43EFF"/>
</mask>
<g mask="url(#mask0_108_2053)">
<rect x="-14.7028" y="-45.738" width="146.072" height="146.072" fill="url(#paint0_linear_108_2053)"/>
</g>
<defs>
<linearGradient id="paint0_linear_108_2053" x1="58.3334" y1="-84.9785" x2="131.369" y2="224.262" gradientUnits="userSpaceOnUse">
<stop stop-color="#E43EFF"/>
<stop offset="1" stop-color="#0094FF"/>
</linearGradient>
</defs>
</svg>
